X:18
T:Cotillon XVIII Le Soldat
F:http://www.vwml.org/record/Longmans/9236/p18
Z:Transcribed by David Jacobs February 2016
S:Longman's XXIV New Cotillons
L:1/8
M:C
K:F
V:1     clef=treble
V:2     clef=bass
V:1
f2c2A2F2|degdc2F2|f2c2A2F2|EFGEC4|f2c2A2F2|defdc2F2|!shortphrase!Gc(de) !shortphrase!Ad(ef)|(ed)(c=B)c4:|
(e2^c2)(A2G2)|(FA)(d^c)d2D2|(d2=B2)(G2F2)|(EG)(c=B)c2C2|e2c2=B2A2|
A=Bcd^G2f2|eagf eagf|edc=BA4|f2c2A2F2|defdc2F2|dgab cfga|agfef4:|
V:2
F,6A,2|B,4A,4|F,6F,,2|C,4B,,,4|F,6A,2|B,4A,4|E,2C,2F,2D,2|G,2G,,2C,4:|
A,4^C4|D2A,2D,4|G,4=B,4|C2G,2C,4|C,4D,4|
E,6^G,2|A,4C,2D,2|E,2E,,2A,,4|F,6A,2|B,4A,4|B,2G,2A,2F,2|B,2C2F,4:|
W:
W:All round:
W:Four lead up, turn you own hands one over the other:
W:Clap with one hand, the Right hand on the Breast:
W:The Left hand the same:
W:Clap hands turn seperate. 1v each to their own places:
W:The other four do the same:
W:Every Gentleman turn his partner.

